frontend/svgs/biz030.svg

<?xml version="1.0" encoding="UTF-8"?> <svg width="100px" height="100px" viewBox="0 0 100 100" version="1.1" xmlns="http://www.w3.org/2000/svg" xmlns:xlink="http://www.w3.org/1999/xlink"> <g id="30.-Law" stroke="none" stroke-width="1" fill="none" fill-rule="evenodd" stroke-linecap="round" stroke-linejoin="round"> <path d="M88.0578541,35.0403943 C86.9466996,32.7009562 83.837541,26.2986245 81.6244025,23.1379352 C79.3885716,19.9448377 74.4551943,14.8588609 72.6407629,13.0211369 L74.7073287,11.5741119 C75.5727322,10.9681499 75.7324382,9.70221129 75.0635328,8.74691548 L71.4288861,3.55610203 C70.7552413,2.59403755 69.513675,2.31936772 68.6451842,2.92749154 C68.6451842,2.92749154 59.5969281,8.1232504 55.5272016,10.9729036 C51.2086577,13.9967806 43.480373,20.548082 43.480373,20.548082 C42.6076303,21.159183 42.4500862,22.4236079 43.1189915,23.3789037 L46.7536382,28.5697171 C47.427283,29.5317816 48.6683601,29.806794 49.5362474,29.1990928 L51.4752305,27.8414022 C52.2305919,29.3617067 53.873802,32.6176885 55.5246267,35.5534769 L4.16555895,71.5154833 C1.98893531,73.0395716 1.46527415,76.0297282 2.98580624,78.2012731 C4.50324435,80.3683993 7.49980122,80.9002578 9.67189274,79.3793429 L61.0206649,43.4245456 C63.2346741,46.0126219 65.7213506,48.6437659 66.889666,49.8625192 L64.953982,51.2178997 C64.0860947,51.825601 63.9200485,53.0858917 64.5936933,54.0479562 L68.22834,59.2387697 C68.8972453,60.1940655 70.1392992,60.4784812 71.0120419,59.8673802 C71.0120419,59.8673802 79.9510012,54.8110979 84.1595996,51.8642057 C88.3392716,48.9375678 96.1768531,42.2467897 96.1768531,42.2467897 C97.0453439,41.6386658 97.2118794,40.3780325 96.5382346,39.415968 L92.9035879,34.2251546 C92.2346826,33.2698588 90.9904668,32.9869568 90.1250633,33.5929188 L88.0578541,35.0403943 L88.0578541,35.0403943 L88.0578541,35.0403943 Z" id="Layer-1" stroke="#957959" stroke-width="4" fill="#957959"></path> <path d="M90.2306337,88.4 L94.1467234,88.4 C95.8050219,88.4 97.1493384,89.7348389 97.1493384,91.3980115 L97.1493384,95.0019885 C97.1493384,96.6577445 95.8154458,98 94.1467234,98 L52.1519534,98 C50.4936549,98 49.1493384,96.6651611 49.1493384,95.0019885 L49.1493384,91.3980115 C49.1493384,89.7422555 50.483231,88.4 52.1519534,88.4 L56.0683898,88.4 C55.9398082,88.0658896 55.8693384,87.7025336 55.8693384,87.3219885 L55.8693384,83.7180115 C55.8693384,82.0622555 57.2029551,80.72 58.8758544,80.72 L87.4228224,80.72 C89.0832753,80.72 90.4293384,82.0548389 90.4293384,83.7180115 L90.4293384,87.3219885 C90.4293384,87.7019827 90.3590971,88.065465 90.2306337,88.4 Z" id="Layer-2" stroke="#957959" stroke-width="4" fill="#957959"></path> </g> </svg>

<svg width="100" height="100" xmlns="http://www.w3.org/2000/svg"><g fill="#957959" fill-rule="evenodd" stroke-linecap="round" stroke-linejoin="round" stroke="#957959" stroke-width="4"><path d="M88.058 35.04c-1.111-2.339-4.22-8.741-6.434-11.902-2.235-3.193-7.169-8.28-8.983-10.117l2.066-1.447c.866-.606 1.025-1.872.357-2.827l-3.635-5.19c-.674-.963-1.915-1.238-2.784-.63 0 0-9.048 5.196-13.118 8.046-4.318 3.024-12.047 9.575-12.047 9.575-.872.611-1.03 1.876-.361 2.83l3.635 5.192c.673.962 1.914 1.237 2.782.63l1.94-1.359c.755 1.52 2.398 4.777 4.049 7.712L4.165 71.515a4.797 4.797 0 00-1.18 6.686 4.804 4.804 0 006.687 1.178L61.02 43.425c2.214 2.588 4.7 5.219 5.869 6.438l-1.936 1.355c-.868.608-1.034 1.868-.36 2.83l3.634 5.19c.67.956 1.911 1.24 2.784.63 0 0 8.939-5.057 13.148-8.004 4.18-2.926 12.017-9.617 12.017-9.617.868-.608 1.035-1.869.361-2.831l-3.634-5.19c-.67-.956-1.914-1.239-2.779-.633l-2.067 1.447h0zM90.23 88.4h3.917a2.996 2.996 0 013.002 2.998v3.604A2.994 2.994 0 0194.147 98H52.152a2.996 2.996 0 01-3.003-2.998v-3.604a2.994 2.994 0 013.003-2.998h3.916a2.995 2.995 0 01-.199-1.078v-3.604a2.994 2.994 0 013.007-2.998h28.547a2.998 2.998 0 013.006 2.998v3.604a3 3 0 01-.198 1.078z"/></g></svg>
